X:1
T:Title
%%score { ( 1 4 5 ) | ( 2 3 ) }
L:1/8
Q:1/4=100
M:4/4
K:Bb
V:1 treble nm="Grand Piano"
V:4 treble 
V:5 treble 
V:2 bass 
V:3 bass 
V:1
 [DF]FGA [DB]2 [Ec]2 | z2 [Fd]6 | [Fd]ddd [Ge]2 [Fd]2 | [EG]6 z2 | [Ec][Ec][D=B][Ec] [Fd]2 [Ec]2 | %5
w: Charles~H.~Gabriel * * * * *|||||
 z2 [EA]4 z2 | [EF][EG][EA][EB] [Ec]2 [=E_d]2 | z f z d- d2 z2 | [DF]FGA [DB]2 [Ec]2 | z2 [Fd]6 | %10
w: |||||
 [Fd][Fd][Fd][Fd] [Ge]2 [Fd]2 | [EG]6 z2 | [GB]B[GA]B [G_d]BGB | z2 [_Af]4 z2 | ddFF G2 [EA]2 | %15
w: |||||
 z4 B2 z2 | [Fd]4 [EG]4 | [DG]>[DA] [DG]>[DA] [DG]4 | [Fd]4 F4 | z4 [EG]4 | A>e e>e e>A A>G | %21
w: ||||||
 [DF]>[Fd] [Fd]>[Fd] [Fd]2 [Fd]2 | [=Ec]>[Ed] [Ec]>[Ed] [Ec]>[EG] [EA]>[EB] | d2 c2 A2 FF | %24
w: |||
 [Fd]4 [EG]4 | [DG]>[DA] [DG]>[DA] [DG]4 | [Fd]4 F4 | z4 [EG]4 | A>e e>e e>A A>G | %29
w: |||||
 [DF]>[Fd] [Fd]>[Fd] [Fd]2 [Fd]2 | [=Ec]>[Ec] [EG]>[EB] A>A F>c | [DB]2 [DB]2 [DB]4 |] %32
w: |||
V:2
 z DDD B,,2 [D,F,B,]2 | B,,2 [F,B,D]2 F,2 F,2 | z[K:treble] FFF[K:bass] B,,2 [F,B,D]2 | %3
 E,,2 E,2 E,2 EE | [F,,F,]2 [F,A,C]2 [F,,F,]2 [F,A,C]2 | [F,,F,]2 [F,A,C]2 [F,A,]2 .E2 | %6
 [F,,F,]2 [F,A,C]2 [F,,F,]2 [G,B,_D]2 | [B,,B,]2 [F,B,D]2 z[K:treble] GFE | z DDD B,,2 [D,F,B,]2 | %9
 [B,,B,]2 [F,B,D]2 [F,B,]2 [F,B,]2 | [G,,G,]2 [G,=B,D]2 [G,,G,]2 [G,B,D]2 | %11
 C,2 E,2 E,2[K:treble] EF | z G z G z[K:treble] G z G | D,2 [F,_A,CD]2 z2 z[K:treble] G | %14
 FF[K:bass]DD [F,A,E]2 [F,,F,]2 | [B,,F,]6 z2 | [B,,B,]2 [B,,B,]2 [B,,B,]2 [B,,B,]2 | %17
 [B,,B,]>[B,,B,] [B,,B,]>[B,,B,] [B,,B,]2 [B,,B,]2 | [B,,B,]2 B,,2 [D,B,]2 D,2 | %19
 C,>C, C,>C, C,2 C,2 | [F,CF]>[F,CF] [F,CF]>[F,CF] [F,CF]>[F,CF] [F,CE]>[F,A,E] | %21
 [B,,B,]>[B,,B,] [B,,B,]>[B,,B,] [B,,B,]2 [B,,B,]2 | %22
 [C,B,]>[C,B,] [C,B,]>[C,B,] [C,B,]>[C,B,] [C,B,]>[C,G,] | [F,A,E]2 [F,A,E]2 [F,CE]2 .[F,A,E]2 | %24
 [B,,B,]2 [B,,B,]2 [B,,B,]2 [B,,B,]2 | [B,,B,]>[B,,B,] [B,,B,]>[B,,B,] [B,,B,]2 [B,,B,]2 | %26
 [B,,B,]2 B,,2 [D,B,]2 D,2 | C,>C, C,>C, C,2 C,2 | %28
 [F,CF]>[F,CF] [F,CF]>[F,CF] [F,CF]>[F,CF] [F,CE]>[F,A,E] | %29
 [B,,B,]>[B,,B,] [B,,B,]>[B,,B,] [B,,B,]2 [B,,B,]2 | %30
 [C,B,]>[C,B,] [C,C]>[C,C] [F,CE]>[F,CE] [F,A,E]>[F,E] | [B,,F,]2 [B,,F,]2 [B,,F,]4 |] %32
V:3
 B,,2 [D,F,B,]2 z4 | x8 | B,,2[K:treble] [F,B,D]2[K:bass] z4 | x8 | x8 | x8 | x8 | %7
 z4 [F,B,D]2[K:treble] z2 | B,,2 [D,F,B,]2 z4 | x8 | x8 | x6[K:treble] x2 | %12
 _D,2 [=E,G,C]2 D,2[K:treble] [E,G,B,]2 | z4 z2 [E,B,]2[K:treble] | [F,B,]2[K:bass] [F,B,]2 z4 | %15
 x8 | x8 | x8 | x8 | x8 | x8 | x8 | x8 | x8 | x8 | x8 | x8 | x8 | x8 | x8 | x8 | x8 |] %32
V:4
 x8 | [Fd]2 z2 [B,D]2 [B,D]2 | x8 | z2 [G,C]2 [G,C]2 GG | x8 | [EA]2 z2 C2 GG | x8 | %7
 dd-[cde]B [Ac]BAG | x8 | [Fd]2 z2 D2 D2 | x8 | z2 [G,C]2 [G,C]2 GA | x8 | [Ff]2 z2 [D,B,]2 [Ge]e | %14
 x8 | B4 (3z FG (3ABc | x8 | x8 | z2 B,2 z2 B,2 | [A,EG]>[A,EA] [A,EG]>[A,EA] A,2 A,2 | x8 | x8 | %22
 x8 | x8 | x8 | x8 | z2 B,2 z2 B,2 | [A,EG]>[A,EA] [A,EG]>[A,EA] A,2 A,2 | x8 | x8 | x8 | x8 |] %32
V:5
 x8 | x8 | x8 | x8 | x8 | x8 | x8 | F6 z2 | x8 | x8 | x8 | x8 | x8 | x8 | x8 | D6 z2 | x8 | x8 | %18
 x8 | x8 | x8 | x8 | x8 | x8 | x8 | x8 | x8 | x8 | x8 | x8 | x8 | x8 |] %32

